lib/preview/nrk-logo-preview-nrk-sport-on-dark.svg

<svg width="81" height="21" viewBox="0 0 81 21" fill="none" xmlns="http://www.w3.org/2000/svg">
<path d="M0 16.0029V4.00396H3.93719V16.0029H0ZM9.29381 5.91365L11.5581 16.0029H7.24917L4.54549 4.00396H6.96218C7.51635 3.99677 8.05406 4.19212 8.4745 4.55326C8.89562 4.89925 9.18495 5.37957 9.29381 5.91365ZM12.1495 16.0029V4.00396H16.0867V16.0029H12.1495ZM19.0605 8.56697C18.6362 8.57111 18.2188 8.4601 17.8525 8.24583C17.4912 8.03699 17.1911 7.73683 16.9823 7.37547C16.7678 7.0092 16.6568 6.59163 16.661 6.16719C16.6561 5.74533 16.7672 5.33025 16.9823 4.9673C17.1933 4.60986 17.4931 4.31296 17.8525 4.10539C18.2189 3.89137 18.6362 3.78038 19.0605 3.78425C19.4822 3.77971 19.8971 3.8908 20.2602 4.10539C20.616 4.31478 20.9127 4.61143 21.122 4.9673C21.3368 5.33035 21.4479 5.74536 21.4433 6.16719C21.4473 6.5916 21.3363 7.0091 21.122 7.37547C20.9149 7.73524 20.6179 8.03515 20.2602 8.24583C19.8971 8.46085 19.4819 8.57196 19.0599 8.56697H19.0605ZM22.0516 16.0029V4.00396H25.9892V16.0029H22.0516ZM30.9737 10.5611C30.9848 10.5727 31.0693 10.7108 31.2272 10.9751C31.3851 11.2395 31.5907 11.5776 31.8439 11.9892C32.0974 12.4006 32.3649 12.8371 32.6463 13.2989C32.9278 13.7606 33.1926 14.1972 33.4408 14.6086C33.6881 15.0201 33.9697 15.4848 34.2857 16.0029H29.9598C29.6893 15.5635 29.4441 15.1663 29.2245 14.8114C29.0048 14.4565 28.7713 14.0735 28.5238 13.6622C28.2758 13.2514 28.0306 12.8514 27.7882 12.4623C27.5458 12.0733 27.3375 11.7325 27.1633 11.4399C26.9883 11.1472 26.8671 10.95 26.7997 10.8484C26.6325 10.5963 26.5336 10.3052 26.5127 10.0034C26.5294 9.7138 26.6226 9.43385 26.7828 9.19198C26.8504 9.07931 26.9743 8.8793 27.1545 8.592C27.3348 8.3047 27.546 7.96392 27.7882 7.56959C28.0304 7.17526 28.2756 6.77247 28.5238 6.36124C28.772 5.95001 29.0056 5.5641 29.2245 5.20357C29.4445 4.84342 29.6897 4.44345 29.9598 4.00368H34.2857L30.9396 9.46237C30.8361 9.62443 30.7777 9.81121 30.7706 10.0034C30.7818 10.2052 30.8522 10.3992 30.9731 10.5611H30.9737Z" fill="white"/>
<path d="M46.223 10.3873C45.9769 10.1365 45.6912 9.92793 45.3773 9.76994C45.0484 9.60344 44.7062 9.46483 44.3541 9.35556C43.9933 9.24281 43.6212 9.14687 43.2378 9.06775C42.9443 9.00029 42.6708 8.93273 42.4175 8.86507C42.1846 8.80493 41.9581 8.72273 41.7409 8.61955C41.5543 8.53116 41.3807 8.41733 41.2253 8.28129C41.0789 8.15228 40.9658 7.98992 40.8953 7.80797C40.8174 7.59395 40.7803 7.36729 40.7856 7.13961C40.7819 6.90387 40.8189 6.66926 40.8953 6.44617C40.9647 6.24941 41.0807 6.07239 41.2335 5.93028C41.3918 5.78533 41.5716 5.66566 41.7663 5.5754C41.9891 5.47383 42.2256 5.40542 42.4682 5.37242C42.7567 5.33129 43.0478 5.31152 43.3392 5.31323C43.6048 5.31375 43.8701 5.32778 44.1342 5.35524C44.4013 5.38313 44.6667 5.42555 44.9292 5.48236C45.1841 5.53765 45.4354 5.60825 45.6818 5.69378C45.9125 5.77312 46.136 5.87207 46.3498 5.9895L46.5867 4.50138C46.3462 4.3759 46.0941 4.27396 45.834 4.19694C45.569 4.1182 45.3012 4.05043 45.0306 3.99368C44.7567 3.93708 44.4801 3.89484 44.2019 3.86712C43.92 3.83893 43.6324 3.82483 43.3392 3.82483C42.7411 3.81833 42.1446 3.88641 41.5633 4.02751C41.0683 4.14705 40.6006 4.35953 40.1849 4.65361C39.8019 4.92837 39.4938 5.29456 39.2885 5.71886C39.0695 6.19579 38.9625 6.71647 38.9756 7.24109C38.9659 7.64709 39.0318 8.05135 39.17 8.43322C39.2914 8.7534 39.4787 9.0445 39.7198 9.28764C39.9582 9.52562 40.2319 9.72529 40.5313 9.87961C40.8489 10.0432 41.1801 10.1791 41.5211 10.2858C41.8762 10.3986 42.2399 10.4944 42.612 10.5734C42.9165 10.6408 43.1983 10.7113 43.4577 10.7848C43.6989 10.8513 43.9338 10.939 44.1596 11.0469C44.3537 11.1385 44.5332 11.2582 44.6923 11.4021C44.8434 11.544 44.9617 11.7172 45.0391 11.9095C45.1287 12.1413 45.1718 12.3884 45.1659 12.6368C45.1704 12.9009 45.1304 13.164 45.0475 13.4148C44.9733 13.6318 44.8585 13.8327 44.7093 14.0068C44.5592 14.1784 44.3748 14.3166 44.168 14.4125C43.9342 14.5201 43.6865 14.5942 43.432 14.6326C43.1215 14.6803 42.8077 14.7029 42.4936 14.7003C42.1882 14.6995 41.8832 14.6797 41.5802 14.6411C41.2645 14.6016 40.9488 14.548 40.6331 14.4801C40.3219 14.4139 40.0143 14.332 39.7113 14.2349C39.4125 14.1396 39.1278 14.041 38.8572 13.9391L39.0771 15.6136C39.3654 15.7212 39.6589 15.8143 39.9565 15.8924C40.2268 15.9634 40.5006 16.0198 40.7769 16.0615C41.0415 16.1008 41.3064 16.1318 41.5718 16.1545C41.8371 16.1773 42.1049 16.1886 42.3749 16.1884C42.9804 16.1922 43.5845 16.1298 44.1765 16.0023C44.7005 15.8924 45.1995 15.686 45.6479 15.3934C46.0664 15.1165 46.4047 14.7345 46.629 14.2856C46.8761 13.754 46.9949 13.1717 46.9757 12.5858C46.9849 12.1492 46.9191 11.7144 46.7811 11.3001C46.6632 10.9591 46.4728 10.6477 46.223 10.3873Z" fill="#F34531"/>
<path d="M55.5255 7.72341C54.9185 7.35175 54.2157 7.1665 53.5044 7.19063C53.0822 7.19272 52.6618 7.24658 52.2528 7.35102C51.8107 7.46359 51.3845 7.63131 50.9842 7.85025C50.9048 7.8931 50.8258 7.94131 50.7474 7.98951V7.20753L49.0223 7.47817V19.5542H50.7474V15.7675C50.759 15.7723 50.7697 15.7776 50.7813 15.7827C51.0938 15.9124 51.4201 16.0061 51.7538 16.0618C52.1478 16.1268 52.5466 16.1579 52.9459 16.1548C53.7075 16.168 54.4584 15.975 55.1193 15.5964C55.7684 15.2118 56.2959 14.6521 56.6415 13.9814C57.0409 13.1818 57.2356 12.2955 57.2081 11.4021C57.224 10.6467 57.0768 9.89671 56.7765 9.20335C56.5122 8.59897 56.0774 8.08471 55.5255 7.72341ZM55.0773 13.381C54.8741 13.8301 54.5336 14.2031 54.1048 14.4463C53.6281 14.696 53.095 14.8185 52.5572 14.8017C52.2995 14.8019 52.0422 14.782 51.7876 14.7422C51.5205 14.6997 51.2574 14.6347 51.0011 14.548C50.9199 14.5198 50.832 14.4877 50.7474 14.4567V9.11904C50.7697 9.10861 50.7928 9.09509 50.8151 9.08494C51.063 8.97219 51.2941 8.87625 51.5085 8.79713C51.7114 8.72135 51.9209 8.66473 52.1343 8.628C52.3243 8.59528 52.5166 8.5783 52.7094 8.57725C53.2307 8.55991 53.7481 8.67331 54.2145 8.90707C54.6223 9.12905 54.9417 9.48415 55.1193 9.91314C55.3344 10.4621 55.4351 11.0491 55.4153 11.6383C55.4333 12.2371 55.3178 12.8323 55.0773 13.381Z" fill="#F34531"/>
<path d="M65.4537 7.7318C64.7491 7.3573 63.9597 7.1709 63.162 7.19058C62.3568 7.17212 61.5608 7.36453 60.853 7.74873C60.1996 8.11437 59.6652 8.66044 59.3138 9.32168C58.9321 10.0634 58.7431 10.8892 58.7642 11.7231C58.7426 12.5506 58.9195 13.3713 59.28 14.1164C59.6041 14.7669 60.1209 15.3015 60.76 15.6474C61.448 16.0077 62.216 16.188 62.9925 16.1714C63.8054 16.1875 64.6089 15.9955 65.3266 15.6135C65.9968 15.248 66.5464 14.6955 66.9083 14.0234C67.301 13.2729 67.496 12.4348 67.475 11.5881C67.4941 10.7815 67.3139 9.98271 66.9503 9.26249C66.6134 8.61581 66.0927 8.08323 65.4537 7.7318ZM65.352 13.3979C65.162 13.8373 64.8399 14.2067 64.4305 14.455C64.019 14.6905 63.5514 14.8103 63.0774 14.8017C62.6124 14.8133 62.1541 14.6898 61.7579 14.4462C61.3659 14.1858 61.0598 13.8151 60.8783 13.3809C60.6481 12.8239 60.5386 12.2244 60.557 11.6219C60.537 11.0357 60.6467 10.4523 60.8783 9.91337C61.0681 9.4898 61.3843 9.13532 61.7835 8.89856C62.2101 8.66357 62.6918 8.5468 63.1786 8.5603C63.5588 8.5508 63.9365 8.62289 64.2865 8.77172C64.5929 8.91011 64.8604 9.12229 65.0648 9.38933C65.2827 9.67945 65.4407 10.0101 65.5296 10.3619C65.6353 10.7734 65.6864 11.1971 65.6818 11.6219C65.7015 12.2308 65.5892 12.8367 65.352 13.3979Z" fill="#F34531"/>
<path d="M73.1066 7.31717C72.7904 7.40219 72.4883 7.53327 72.2102 7.70618C71.9217 7.88642 71.6551 8.09924 71.4153 8.34044C71.3753 8.38047 71.3366 8.425 71.2968 8.467V7.2075L69.5717 7.46121V16.0026H71.2968V9.61261C71.425 9.52302 71.5577 9.44004 71.6944 9.36399C71.8635 9.2706 72.0388 9.18867 72.2189 9.11874C72.3935 9.05109 72.571 8.99189 72.7514 8.94115C72.9371 8.88943 73.1266 8.85257 73.3181 8.83093C73.523 8.8084 73.7295 8.80285 73.9354 8.81431L74.1383 7.22416C73.7917 7.1995 73.4433 7.2309 73.1066 7.31717Z" fill="#F34531"/>
<path d="M80.4471 14.5903C80.3679 14.6072 80.2805 14.6239 80.1847 14.641L79.8974 14.6915C79.8051 14.7082 79.7119 14.7196 79.6183 14.7256C79.5278 14.7313 79.4432 14.7341 79.3647 14.7341C79.1055 14.741 78.8481 14.6889 78.612 14.5819C78.4091 14.4855 78.2408 14.329 78.1299 14.1337C78.0115 13.9129 77.9532 13.6649 77.9608 13.4145V8.72976H80.3456L80.5317 7.37666H77.9608V4.7046L76.2356 5.3135V7.37666H74.9333L74.7469 8.72976H76.2356V13.77C76.2279 14.1062 76.2795 14.4411 76.3879 14.7595C76.4749 15.0112 76.6099 15.2437 76.7853 15.4442C76.9461 15.6229 77.1418 15.7668 77.3604 15.867C77.5839 15.9699 77.8197 16.0439 78.062 16.0872C78.3019 16.1314 78.5454 16.154 78.7893 16.1548C78.9697 16.1548 79.1474 16.1491 79.3223 16.1376C79.4973 16.1262 79.658 16.1093 79.8044 16.0872C79.9507 16.0643 80.0891 16.039 80.2188 16.0108C80.3485 15.9826 80.4581 15.9578 80.5483 15.935L80.6501 14.5308C80.5843 14.5563 80.5163 14.5762 80.4471 14.5903Z" fill="#F34531"/>
</svg>

<svg xmlns="http://www.w3.org/2000/svg" viewBox="0 0 81 21"><path fill="#fff" d="M0 16.003V4.004h3.937v11.999H0Zm9.294-10.09 2.264 10.09H7.25L4.545 4.004h2.417a2.276 2.276 0 0 1 1.513.55c.42.345.71.826.819 1.36Zm2.855 10.09V4.004h3.938v11.999h-3.938Zm6.912-7.436a2.382 2.382 0 0 1-2.4-2.4 2.301 2.301 0 0 1 .321-1.2 2.41 2.41 0 0 1 3.278-.862c.356.21.653.506.862.862.215.363.326.778.321 1.2a2.35 2.35 0 0 1-.321 1.208 2.4 2.4 0 0 1-.862.87 2.302 2.302 0 0 1-1.2.322Zm2.99 7.436V4.004h3.938v11.999h-3.937Zm8.923-5.442c.01.012.095.15.253.414s.364.603.617 1.014a309.436 309.436 0 0 1 1.597 2.62c.247.411.529.876.845 1.394H29.96c-.27-.44-.516-.837-.736-1.192-.22-.354-.453-.738-.7-1.149-.248-.41-.493-.81-.736-1.2a60.12 60.12 0 0 1-.625-1.022 18.04 18.04 0 0 0-.363-.592 1.747 1.747 0 0 1-.287-.845c.016-.29.11-.57.27-.811.067-.113.191-.313.371-.6s.392-.628.634-1.022c.242-.395.488-.798.736-1.209l.7-1.157.736-1.2h4.326L30.94 9.462a1.08 1.08 0 0 0-.17.541c.012.202.082.396.203.558Z"/><path fill="#F34531" d="M46.223 10.387a3.201 3.201 0 0 0-.846-.617 6.59 6.59 0 0 0-1.023-.414 11.6 11.6 0 0 0-1.116-.288 24.167 24.167 0 0 1-.82-.203 3.778 3.778 0 0 1-.677-.245 2.236 2.236 0 0 1-.516-.339 1.217 1.217 0 0 1-.33-.473 1.83 1.83 0 0 1-.11-.668c-.003-.236.034-.47.11-.694a1.29 1.29 0 0 1 .338-.516c.159-.145.339-.264.533-.355.223-.101.46-.17.702-.203.289-.04.58-.06.871-.059a7.384 7.384 0 0 1 1.59.17c.255.055.506.125.753.21.23.08.454.18.668.296l.237-1.488a4.214 4.214 0 0 0-.753-.304 10.093 10.093 0 0 0-.803-.203 8.028 8.028 0 0 0-.83-.127 8.667 8.667 0 0 0-.862-.042 7.197 7.197 0 0 0-1.776.203c-.495.12-.962.332-1.378.626a2.825 2.825 0 0 0-.897 1.065 3.442 3.442 0 0 0-.312 1.522c-.01.406.056.81.194 1.192.121.32.309.611.55.855.238.238.512.437.811.592.318.163.65.3.99.406.355.113.719.208 1.091.287.304.068.586.138.846.212.24.066.476.154.702.262.194.091.373.211.532.355.151.142.27.315.347.508.09.231.133.478.127.727.004.264-.036.527-.118.778a1.81 1.81 0 0 1-.339.592 1.63 1.63 0 0 1-.541.405 2.737 2.737 0 0 1-.736.22 5.86 5.86 0 0 1-.938.068c-.306 0-.61-.02-.914-.059-.316-.04-.631-.093-.947-.16a9.493 9.493 0 0 1-.922-.246 17.605 17.605 0 0 1-.854-.296l.22 1.675c.288.107.582.2.88.278.27.071.544.128.82.17.264.039.53.07.795.092.265.023.533.035.803.034a8.31 8.31 0 0 0 1.801-.186 4.312 4.312 0 0 0 1.472-.609c.418-.277.757-.659.981-1.107a3.742 3.742 0 0 0 .347-1.7 3.814 3.814 0 0 0-.195-1.286 2.497 2.497 0 0 0-.558-.913ZM55.526 7.723a3.635 3.635 0 0 0-2.022-.532 5.162 5.162 0 0 0-1.251.16 5.442 5.442 0 0 0-1.506.639v-.782l-1.725.27v12.076h1.725v-3.786c.012.004.023.01.034.015.313.13.64.223.973.279a6.99 6.99 0 0 0 1.192.093 4.225 4.225 0 0 0 2.173-.559 4.014 4.014 0 0 0 1.523-1.615 5.4 5.4 0 0 0 .566-2.579 5.254 5.254 0 0 0-.431-2.199 3.395 3.395 0 0 0-1.252-1.48Zm-.449 5.658c-.203.45-.543.822-.972 1.065-.477.25-1.01.373-1.548.356a4.817 4.817 0 0 1-1.81-.345V9.119c.023-.01.046-.024.068-.034.248-.113.48-.209.694-.288a3.472 3.472 0 0 1 1.2-.22 3.127 3.127 0 0 1 1.505.33c.408.222.728.577.905 1.006a4.33 4.33 0 0 1 .296 1.725 4.039 4.039 0 0 1-.338 1.743ZM65.454 7.732a4.64 4.64 0 0 0-2.292-.541 4.618 4.618 0 0 0-2.309.558 3.9 3.9 0 0 0-1.54 1.573 4.973 4.973 0 0 0-.549 2.401 5.185 5.185 0 0 0 .516 2.393c.324.65.84 1.186 1.48 1.531a4.6 4.6 0 0 0 2.233.524 4.767 4.767 0 0 0 2.334-.557 3.938 3.938 0 0 0 1.581-1.59c.393-.751.588-1.59.567-2.436a4.903 4.903 0 0 0-.525-2.326 3.696 3.696 0 0 0-1.496-1.53Zm-.102 5.666c-.19.44-.512.809-.922 1.057-.411.236-.879.355-1.353.347a2.405 2.405 0 0 1-1.32-.356 2.382 2.382 0 0 1-.879-1.065 4.264 4.264 0 0 1-.321-1.76c-.02-.585.09-1.169.321-1.708a2.25 2.25 0 0 1 .905-1.014 2.735 2.735 0 0 1 1.396-.339c.38-.01.758.063 1.108.212.306.138.573.35.778.617.218.29.376.621.465.973.105.411.156.835.152 1.26a4.212 4.212 0 0 1-.33 1.776ZM73.107 7.317a3.34 3.34 0 0 0-.897.39c-.288.18-.555.392-.795.633-.04.04-.078.085-.118.127v-1.26l-1.725.254v8.542h1.725v-6.39a4.318 4.318 0 0 1 .922-.494c.174-.068.352-.127.532-.178a3.632 3.632 0 0 1 1.184-.127l.203-1.59a3.233 3.233 0 0 0-1.031.093ZM80.447 14.59c-.08.017-.166.034-.262.051l-.288.05a2.447 2.447 0 0 1-.279.035 4.05 4.05 0 0 1-.253.008 1.713 1.713 0 0 1-.753-.152 1.095 1.095 0 0 1-.482-.448 1.43 1.43 0 0 1-.17-.72V8.73h2.386l.186-1.353H77.96V4.705l-1.725.609v2.063h-1.303l-.186 1.353h1.489v5.04c-.008.336.043.671.152.99.087.251.222.484.397.684.161.179.357.323.575.423.224.103.46.177.702.22.24.044.483.067.727.068.18 0 .358-.006.533-.017a5.744 5.744 0 0 0 .897-.127c.13-.028.24-.053.33-.076l.101-1.404a1.256 1.256 0 0 1-.203.06Z"/></svg>
